svgs/sharp-solid/hands-praying.svg

<svg xmlns="http://www.w3.org/2000/svg" viewBox="0 0 640 512"><!--! Font Awesome Pro 6.6.0 by @fontawesome - https://fontawesome.com License - https://fontawesome.com/license (Commercial License) Copyright 2024 Fonticons, Inc. --><path d="M117 206.8L245 6.8l55 32.6L208 208.2 208 320l32 0 0-112 64 0 0 112 0 112L48 512 0 512 0 368l112-42 0-102 0-9.4 5-7.9zm405.9 0l5 7.9 0 9.4 0 102 112 42 0 144-48 0L336 432l0-112 0-112 64 0 0 112 32 0 0-111.8L339.9 39.3 395 6.8l128 200z"/></svg>

<svg xmlns="http://www.w3.org/2000/svg" viewBox="0 0 640 512"><!--! Font Awesome Pro 6.4.0 by @fontawesome - https://fontawesome.com License - https://fontawesome.com/license (Commercial License) Copyright 2023 Fonticons, Inc. --><path d="M117 206.8L245 6.8l55 32.6L208 208.2V320h32V208h64V320 432L48 512H0V368l112-42V224v-9.4l5-7.9zm405.9 0l5 7.9V224 326l112 42V512H592L336 432V320 208h64V320h32V208.2L339.9 39.3 395 6.8l128 200z"/></svg>
